X: 1
T: The Yew Tree - 4/4
P: piffero primo a0834
O: traditional
%R: reel, march
F: http://ancients.sudburymuster.org/mus/sng/pdf/yewtreeC0.pdf
Z: 2020 John Chambers <jc:trillian.mit.edu>
M: 4/4
L: 1/8
K: Ador
AG |\
Aeed e2de | cABG A2AB | cAce dBdg | e4 e2AG |\
Aeed e2de | cABG A2AB |
cAdc BAGE | A6 AA |]\
dBdf gfed | ezAG E3A | d2 (3Bcd edge | d4 d2 (3Bcd |\
e^deg e2=dB |
dedB G4 | cdcA BAGE | A2e^d e=d (3BAG |\
d4- d4- | d2zc BAGE | A4- A4- | A2z2 z2 |]


